src/symbolic/status/appointment-missed-symbolic.svg

<svg xmlns="http://www.w3.org/2000/svg" width="16" height="16" version="1.1">
 <path style="fill:#444444" d="M 11,11 V 12 C 11,12.28 11.1,12.54 11.28,12.72 L 12.06,13.5 11.28,14.28 C 11.1,14.46 11,14.72 11,15 V 16 H 12 C 12.28,16 12.54,15.9 12.72,15.72 L 13.5,14.94 14.28,15.72 C 14.46,15.9 14.72,16 15,16 H 16 V 15 C 16,14.72 15.9,14.46 15.72,14.28 L 14.94,13.5 15.72,12.72 C 15.9,12.54 16,12.28 16,12 V 11 H 15 C 14.72,11 14.46,11.1 14.28,11.28 L 13.5,12.06 12.72,11.28 C 12.54,11.1 12.28,11 12,11 Z"/>
 <path style="fill:#444444;opacity:0.3" d="M 8 1 A 7 7 0 0 0 1 8 A 7 7 0 0 0 8 15 A 7 7 0 0 0 10 14.705 L 10 12.576 A 5 5 0 0 1 8 13 A 5 5 0 0 1 3 8 A 5 5 0 0 1 8 3 A 5 5 0 0 1 13 8 A 5 5 0 0 1 12.58 10 L 14.701 10 A 7 7 0 0 0 15 8 A 7 7 0 0 0 8 1 z"/>
 <path style="opacity:0.3;fill:#444444" d="M 10.49,4.9961 A 0.50005,0.50005 0 0 0 10.146,5.1465 L 8,7.293 6.3535,5.6465 A 0.50005,0.50005 0 1 0 5.6465,6.3535 L 7.6465,8.3535 A 0.50005,0.50005 0 0 0 8.3535,8.3535 L 10.854,5.8535 A 0.50005,0.50005 0 0 0 10.49,4.9961 Z"/>
</svg>

<svg xmlns="http://www.w3.org/2000/svg" width="16" height="16"><path d="M11 11v1c0 .28.1.54.28.72l.78.78-.78.78c-.18.18-.28.44-.28.72v1h1c.28 0 .54-.1.72-.28l.78-.78.78.78c.18.18.44.28.72.28h1v-1c0-.28-.1-.54-.28-.72l-.78-.78.78-.78c.18-.18.28-.44.28-.72v-1h-1c-.28 0-.54.1-.72.28l-.78.78-.78-.78c-.18-.18-.44-.28-.72-.28z" fill="#444"/><path d="M8 1a7 7 0 0 0-7 7 7 7 0 0 0 7 7 7 7 0 0 0 2-.295v-2.129A5 5 0 0 1 8 13a5 5 0 0 1-5-5 5 5 0 0 1 5-5 5 5 0 0 1 5 5 5 5 0 0 1-.42 2h2.121A7 7 0 0 0 15 8a7 7 0 0 0-7-7z" fill="#444" opacity=".3"/><path d="M10.49 4.996a.5.5 0 0 0-.344.15L8 7.293 6.354 5.646a.5.5 0 1 0-.708.708l2 2a.5.5 0 0 0 .708 0l2.5-2.5a.5.5 0 0 0-.364-.858z" opacity=".3" fill="#444"/></svg>
